X: 1
T: Unnamed Air in E
C: by Terry Traub, Oct. 7, 2017
K: E
M: 4/4
L: 1/8
|: B|"A"c "B"B3 "E"e3 E|"B"F E3 "E"G3 B,|"A"C B,3 "C#m"E3 F|"B"G F3 F3 B|\
"A"c "B"B3 "E"e3 E|"B"F E3 "E"G3 B,|"A"C B,3 "F#m"E3 G|"B"F E3 "E"E3 :|
e |"A"c2 "B"B2 "C#m"e3 g|"B"f e3 "E"g3 B|"A"c B3 "C#m"e3 f|"B"g f3 f3 e|\
"A"c2 "B"B2 "C#m"e3 g|"B"f e3 "E"g3 B|"A"c B3 "C#m"e2 (3efg|"B"f2 e2 "E"e3 e|
"A"c2 "B"B2 "C#m"e3 g|"B"f e3 "E"g3 B|"A"c B3 "C#m"e3 f|"B"g f3 f3 B|\
"A"c "B"B3 "E"e3 E|"B"F E3 "E"G3 B,|"A"C B,3 "F#m"E3 G|"B"F E3 "E"E3 |]
